X: 3287
T: JOHN BAIN'S SISTER'S WEDDING
%R: jig
B: James Kerr "Merry Melodies" v.3 p.31 #287
Z: 2016 John Chambers <jc:trillian.mit.edu>
M: 6/8
L: 1/8
K: Am
e |\
c2A AAA | agf e2d | c2A AAA | d2c B2d |\
c2A AAA | agf e2d | c2A BGB | A3  A2 :|
|: e |\
A2B c2c | d2c cBc | d2c Bcd | e2A A2e |\
f2g agf | e2d c2a | c2A BGB | A3  A2 :|

%%sep 1 1 500
%%sep 1 1 500

